X: 33
T: Out On The Ocean
Z: Em G
S: https://thesession.org/tunes/108#setting54280
R: jig
M: 6/8
L: 1/8
K: Gmaj
|:D2B BAG|BdB ABA|GED G2A|B2B AGE|
D2B BAG|BdB ABA|GED G2A|1BGF G2E:|2BGF GBd||
|:e2e edB|ege edB|d2B def|gfe dBA|
G2A B2d|ege dBA|GED G2A|1BGF GBd:|2BGF G3||

%-------------------- TUNE SEPARATOR --------------------%

